assets/icons/24px/outline/underline-24px.svg

<svg width="24" height="24" viewBox="0 0 24 24" fill="none" xmlns="http://www.w3.org/2000/svg">
<path d="M20 3.22222C20 2.66994 19.5523 2.22222 19 2.22222C18.4477 2.22222 18 2.66994 18 3.22222L20 3.22222ZM6 3.22222C6 2.66994 5.55228 2.22222 5 2.22222C4.44772 2.22222 4 2.66994 4 3.22222L6 3.22222ZM18 22C18.5523 22 19 21.5523 19 21C19 20.4477 18.5523 20 18 20V22ZM6 20C5.44772 20 5 20.4477 5 21C5 21.5523 5.44772 22 6 22V20ZM18 3.22222C18 6.26818 17.9996 8.64463 17.8923 10.517C17.784 12.4049 17.5708 13.6634 17.2051 14.521C16.8676 15.3126 16.4036 15.759 15.6784 16.0465C14.8806 16.3627 13.7299 16.5 12 16.5V18.5C13.7701 18.5 15.2444 18.3699 16.4154 17.9058C17.6589 17.4128 18.5074 16.5659 19.0449 15.3054C19.5542 14.1109 19.7785 12.5586 19.889 10.6315C20.0004 8.6887 20 6.24571 20 3.22222L18 3.22222ZM12 16.5C10.2701 16.5 9.11936 16.3627 8.32162 16.0465C7.59641 15.759 7.13241 15.3126 6.79487 14.521C6.42921 13.6634 6.21599 12.4049 6.10774 10.517C6.00038 8.64463 6 6.26818 6 3.22222L4 3.22222C4 6.24571 3.99962 8.6887 4.11101 10.6315C4.22151 12.5586 4.44579 14.1109 4.95513 15.3054C5.49259 16.5659 6.34108 17.4128 7.58463 17.9058C8.75564 18.3699 10.2299 18.5 12 18.5V16.5ZM18 20H6V22H18V20Z" fill="white"/>
</svg>

<svg width="24" height="24" fill="none" xmlns="http://www.w3.org/2000/svg"><path d="M20 3.222a1 1 0 1 0-2 0h2zm-14 0a1 1 0 0 0-2 0h2zM18 22a1 1 0 1 0 0-2v2zM6 20a1 1 0 1 0 0 2v-2zM18 3.222c0 3.046 0 5.423-.108 7.295-.108 1.888-.321 3.146-.687 4.004-.337.792-.801 1.238-1.527 1.526-.797.316-1.948.453-3.678.453v2c1.77 0 3.244-.13 4.415-.594 1.244-.493 2.092-1.34 2.63-2.6.51-1.195.733-2.747.844-4.674C20 8.689 20 6.246 20 3.222h-2zM12 16.5c-1.73 0-2.88-.137-3.678-.453-.726-.288-1.19-.734-1.527-1.526-.366-.858-.579-2.116-.687-4.004C6 8.645 6 6.268 6 3.222H4c0 3.024 0 5.467.111 7.41.11 1.927.335 3.479.844 4.673.538 1.26 1.386 2.108 2.63 2.6 1.17.465 2.645.595 4.415.595v-2zm6 3.5H6v2h12v-2z" fill="#fff"/></svg>
